X:1
T:His Dark Materials Theme
T:His Dark Materials Theme
T:Lorne Balfe
T:arr. by Jon Pumper transcribed by Rhianna Spong
C:Lorne Balfe
Z:arr. by Jon Pumper transcribed by Rhianna Spong
%%score { 1 | ( 2 3 ) }
L:1/8
Q:1/4=85
M:4/4
K:Eb
V:1 treble nm="Piano" snm="Pno."
V:2 treble 
V:3 treble 
V:1
!p!!<(! z cec z cec | z cec z cec!<)! |!mf! z cec z cec |!<(! z cec z cec!<)! | %4
!f! [Gcg]<e [Aea]>[cg] [cf]4 | [Ace]<f [F=Bd]e/[Gd]/ c4 |!f! [Gcg]<e [Gcg]>[Bb] [cac']4 | %7
 [Bb]<[cc'] [ee']>[dd'] [cac']4 |!f! [Gcg]<e [Aca]>[cg] [Acf]4 | [Ace]<f [F=Bd]e/d/ c4 | %10
!f! [Gcg]<e [Gcg]>[Bb] [cac']4 | [Bb]<[cc'] [ee']>[dd'] [cc']4 |!mp! [Ge]2 [Gd]2 [GBe]3 [Bf] | %13
 [FBd]2 [Fc]2 [FAd]2 [Ae]2 | [GBeg]2 [FBf]2 [G=Bdg]3 [Aca] | [F_df]2 [FAe]2 [A_cf]2 [Ac_g]2 | %16
 [_G_ce]2 [G_d]2 [Ace]3 [cf] |!<(! [Gce]3 z/ f/4e/4 [Fd]2 [F=B]2!<)! | %18
!mf! [G,CG]<E [A,CA]>[CG] [A,CF]4 | [A,CE]<F [F,D]E/D/ C4 |!mf! [G,CG]<E [G,CG]>[B,B] [CAc]4 | %21
 [B,B]<[Cc] [Ee]>[Dd] [Cc]4 |!f! [Gcg]<e [Acea]>[cg] [Acf]4 | [Ace]<f [F=Bd]e/d/ c4 | %24
!f! [Gcg]<e [Gcg]>[Bb] [cac']4 | [Bb]<[cc']- [cc']2 [ee']3 [dd'] | [cc']4 z4 | %27
!mp! [CG]<E [CA]>G [CF]4 | [CG]<=E [CA]>G [CF]4 |!mf! [cg]<e [ca]>g [cf]4 | [cg]<e [ca]>g [cf]4 | %31
!mf! C8- | C8 |] %33
V:2
!ped! C4!ped! C4!ped-up! |!ped! C4!ped! C4!ped-up! |[K:bass]!ped! G,<E, A,>G, F,2 D,2!ped-up! | %3
!ped! G,<E, A,>G, F,2 D,2!ped-up! | %4
!ped! C,,/G,,/C,/G,/ C/G,/C,/G,,/!ped-up!!ped! C,,/G,,/C,/F,/ A,/F,/C,/F,/!ped-up! | %5
!ped! A,,,/E,,/A,,/E,,/!ped-up!!ped! G,,,/D,,/G,,/D,,/!ped-up!!ped! C,,/G,,/C,/G,,/!ff! (3[E,,E,][D,,D,][_D,,_D,]!ped-up! | %6
!ped! C,,/G,,/C,/G,/ C/G,/E,/G,,/!ped-up!!ped! A,,/E,/A,/E,/!ped-up! B,/E,/A,,/G,,/ | %7
!ped! F,,/C,/F,/C,/!ped-up!!ped! G,,/D,/G,/D,/!ped-up!!ped! A,,/E,/A,!ff! (3[=B,,,=B,,][C,,C,][D,,D,]!ped-up! | %8
!ped! C,,/G,,/C,/G,/ C/G,/C,/G,,/!ped-up!!ped! C,,/G,,/C,/F,/!ped-up! A,/F,/C,/F,/ | %9
!ped! A,,,/E,,/A,,/E,,/!ped-up!!ped! G,,,/D,,/G,,/D,,/!ped-up!!ped! C,,/G,,/C,/G,,/!ff! (3[E,,E,][D,,D,][_D,,_D,]!ped-up! | %10
!ped! C,,/G,,/C,/G,/ C/G,/E,/G,,/!ped-up!!ped! A,,/E,/A,/E,/!ped-up! B,/E,/A,,/G,,/ | %11
!ped! F,,/C,/F,/C,/!ped-up!!ped! G,,/D,/G,/D,/!ped-up!!ped! A,,/E,/A,!ff! (3[E,,E,][D,,D,][_D,,_D,]!ped-up! | %12
!ped! C,,/G,,/C,/E,/ G,/C/G,/E,/!ped-up!!ped! G,,/E,/G,/E,/!ped-up! B,/E,/G,,/E,/ | %13
!ped! F,,/D,/F,/D,/ F,/D,/F,/D,/!ped-up!!ped! F,,/C,/F,/C,/ A,/C,/F,,/C,/!ped-up! | %14
!ped! E,,/B,,/E,/F,/ E,/B,,/E,,/E,/!ped-up!!ped! G,,/D,/F,/D,/ =B,/D,/G,,/D,/!ped-up! | %15
!ped! _D,,/A,,/_D,/A,,/ E,/A,,/D,,/A,,/!ped-up!!ped! A,,,/E,,/A,,/E,/ A,/E,/A,,/E,/!ped-up! | %16
!ped! =B,,/_G,/=B,/G,/ B,/G,/B,,/G,/!ped-up!!ped! A,,/E,/A,/E,/ _B,/E,/A,,/E,/!ped-up! | %17
!ped! C,,/G,,/C,/E,/ G,/C/G,/E,/!ped-up!!ped! G,,,/D,,/G,,/D,,/ [G,,,G,,][G,,,G,,]!ped-up! | %18
!ped! C,,,/C,,/G,,/C,C,/G,,/C,,/!ped-up!!ped! C,,/G,,/C,/F,/ C,/G,,/C,,/G,,/!ped-up! | %19
!ped! A,,,/E,,/A,,/E,,/!ped-up!!ped! G,,,/D,,/G,,/D,,/!ped-up!!ped! C,,,/G,,,/C,,!f! (3[E,,E,][D,,D,][_D,,_D,]!ped-up! | %20
!ped! C,,/G,,/C,/G,,C,/G,,/E,,/!ped-up!!ped! A,,,/E,,/A,,/E,,/!ped-up! B,,/E,,/A,,,/G,,,/ | %21
!ped! F,,,/C,,/F,,/C,,/!ped-up!!ped! G,,,/D,,/F,,/G,,/!ped-up!!ped! D,,/A,,,/E,,/A,,/ (3[=B,,,=B,,][C,,C,][D,,D,]!ped-up! | %22
!ped! C,,/G,,/C,/G,/ C/G,/C,/G,,/!ped-up!!ped! C,,/G,,/C,/F,/!ped-up! A,/F,/C,/F,/ | %23
!ped! A,,,/E,,/A,,/E,,/!ped-up!!ped! G,,,/D,,/G,,/D,,/!ped-up!!ped! C,,/G,,/C,/G,,/!ff! (3[E,,E,][D,,D,][_D,,_D,]!ped-up! | %24
!ped! C,,/G,,/C,/G,/ C/G,/C,/G,,/!ped-up!!ped! A,,,/E,,/A,,/E,,/!ped-up! B,,/E,,/[A,,,A,,]/[G,,,G,,]/ | %25
!ped! F,,,/C,,/F,,/C,/ F,/C,/F,,/C,/!ped-up!!ped! G,,,/D,,/G,,/=B,,/ D,/G,/D,/B,,/!ped-up! | %26
!ped! A,,,/E,,/A,,/E,,/ B,,A,,,!ff! (3[=B,,,=B,,][C,,C,][D,,D,] (3[E,,E,][F,,F,][G,,G,]!ped-up! | %27
!ped! C,,/G,,/C,/G,,/ E,/G,,/C,/G,,/!ped-up!!ped! C,,/G,,/C,/G,,/ E,/G,,/C,/G,,/ | %28
!ped! C,,/G,,/C,/G,,/ =E,/G,,/C,!ped-up!!ped! C,,/G,,/C,/G,,/!f! (3[E,,_E,][D,,D,][_D,,_D,]!ped-up! | %29
!ped! C,,/G,,/C,/G,,/ E,/G,,/C,!ped-up!!ped! C,,/G,,/C,/G,,/!ped-up! E,/G,,/C,/G,,/ | %30
!ped! C,,/G,,/C,/G,,/ E,/G,,/C,/G,,/!ped-up!!ped! C,,/G,,/C,/G,,/!f! (3[E,,E,][D,,D,][_D,,_D,]!ped-up! | %31
 [C,,,C,,]8- | [C,,,C,,]8 |] %33
V:3
 z/ G7/2 z/ G7/2 | z/ G7/2 z/ G7/2 |[K:bass] x8 | x8 | x8 | x8 | x8 | x8 | x8 | x8 | x8 | x8 | x8 | %13
 x8 | x8 | x8 | x8 | x8 | x8 | x8 | x8 | x8 | x8 | x8 | x8 | x8 | x8 | x8 | x8 | x8 | x8 | x8 | %32
 x8 |] %33

